dist/images/icons/search.svg

<svg width="22" height="22" viewBox="0 0 22 22" fill="none" xmlns="http://www.w3.org/2000/svg">
<path d="M19.9375 18.3906L14.6059 13.0582C15.4651 11.8775 15.9273 10.4545 15.9259 8.99422C15.9259 5.17215 12.8163 2.0625 8.99422 2.0625C5.17215 2.0625 2.0625 5.17215 2.0625 8.99422C2.0625 12.8163 5.17215 15.9259 8.99422 15.9259C10.4545 15.9273 11.8775 15.4651 13.0582 14.6059L18.3906 19.9375L19.9375 18.3906ZM8.99422 13.7367C8.05613 13.7368 7.13908 13.4587 6.35905 12.9375C5.57902 12.4164 4.97104 11.6757 4.61201 10.809C4.25298 9.94235 4.15902 8.98867 4.34201 8.0686C4.525 7.14853 4.97673 6.30339 5.64006 5.64006C6.30339 4.97673 7.14853 4.525 8.0686 4.34201C8.98867 4.15902 9.94235 4.25298 10.809 4.61201C11.6757 4.97104 12.4164 5.57902 12.9375 6.35905C13.4587 7.13908 13.7368 8.05613 13.7367 8.99422C13.7352 10.2515 13.2351 11.4569 12.346 12.346C11.4569 13.2351 10.2515 13.7352 8.99422 13.7367Z" fill="white"/>
</svg>

<svg width="22" height="22" fill="none" xmlns="http://www.w3.org/2000/svg"><path d="M19.938 18.39l-5.332-5.332a6.896 6.896 0 001.32-4.064 6.94 6.94 0 00-6.932-6.931 6.94 6.94 0 00-6.931 6.931 6.94 6.94 0 006.931 6.932 6.896 6.896 0 004.064-1.32l5.333 5.332 1.547-1.547zM8.993 13.738a4.742 4.742 0 110-9.485 4.742 4.742 0 010 9.485z" fill="#fff"/></svg>
